X: 22875
T: Lark On The Strand, The
R: jig
M: 6/8
K: Gmajor
ABG AGA|BGE G3|ABA GBd|egd edB|
ABG AGA|BGE G2 D|GBA G2B|dBG BdB:|
GBd ggg|gba gdB|GBd g2d|egd edB|
GBd ggg|gba ggg|aba age|egd edB:|

